Simply-Blue-Circles/scalable/apps/org.kde.plasma.vault.svg

<svg xmlns="http://www.w3.org/2000/svg" width="48" height="48" viewBox="0 0 12.7 12.7"><path d="M6.344.072a6.29 6.29 0 0 0-6.29 6.29 6.29 6.29 0 0 0 6.29 6.289 6.29 6.29 0 0 0 6.289-6.29 6.29 6.29 0 0 0-6.29-6.29zm-.018.937a5.407 5.407 0 0 1 5.407 5.407 5.407 5.407 0 0 1-5.407 5.407A5.407 5.407 0 0 1 .92 6.416 5.407 5.407 0 0 1 6.326 1.01zM2.785 3.06h-.001a.643.643 0 0 0-.645.645v1.074c0 .017.004.033.006.05V7.97H2.14v1.006c0 .357.287.644.644.644h7.181a.643.643 0 0 0 .644-.644v-.862h.001V3.778H5.946l-.72-.719H2.785zm.301 1.442l-.002.001h7.513l.003.49H3.38v.952c0 .182-.12.328-.27.328-.15 0-.27-.146-.27-.328V4.829c0-.016.006-.03.008-.046-.002-.013-.008-.024-.008-.037 0-.125.095-.224.216-.239.01 0 .02-.006.03-.006zm3.678 1.246c.503 0 .907.414.907.922v.44h.227c.126 0 .227.1.227.226v1.361a.226.226 0 0 1-.227.226H5.631a.226.226 0 0 1-.227-.226V7.335c0-.126.101-.226.227-.226h.226v-.44c0-.508.405-.922.907-.922zm0 .454a.453.453 0 0 0-.453.454v.454h.907v-.454a.453.453 0 0 0-.454-.454z" fill="#2c89a0"/></svg>

<?xml version="1.0" encoding="UTF-8" standalone="no"?>
<svg
   xmlns:dc="http://purl.org/dc/elements/1.1/"
   xmlns:cc="http://creativecommons.org/ns#"
   xmlns:rdf="http://www.w3.org/1999/02/22-rdf-syntax-ns#"
   xmlns:svg="http://www.w3.org/2000/svg"
   xmlns="http://www.w3.org/2000/svg"
   xmlns:sodipodi="http://sodipodi.sourceforge.net/DTD/sodipodi-0.dtd"
   xmlns:inkscape="http://www.inkscape.org/namespaces/inkscape"
   width="48"
   height="48"
   viewBox="0 0 12.7 12.7"
   version="1.1"
   id="svg4"
   sodipodi:docname="org.kde.plasma.vault.svg"
   inkscape:version="0.92.4 (5da689c313, 2019-01-14)">
  <metadata
     id="metadata10">
    <rdf:RDF>
      <cc:Work
         rdf:about="">
        <dc:format>image/svg+xml</dc:format>
        <dc:type
           rdf:resource="http://purl.org/dc/dcmitype/StillImage" />
        <dc:title></dc:title>
      </cc:Work>
    </rdf:RDF>
  </metadata>
  <defs
     id="defs8" />
  <sodipodi:namedview
     pagecolor="#ffffff"
     bordercolor="#666666"
     borderopacity="1"
     objecttolerance="10"
     gridtolerance="10"
     guidetolerance="10"
     inkscape:pageopacity="0"
     inkscape:pageshadow="2"
     inkscape:window-width="1087"
     inkscape:window-height="480"
     id="namedview6"
     showgrid="false"
     inkscape:zoom="4.9166667"
     inkscape:cx="2.1355932"
     inkscape:cy="24"
     inkscape:window-x="0"
     inkscape:window-y="25"
     inkscape:window-maximized="0"
     inkscape:current-layer="svg4" />
  <path
     d="m 6.344,0.072 a 6.29,6.29 0 0 0 -6.29,6.29 6.29,6.29 0 0 0 6.29,6.289 6.29,6.29 0 0 0 6.289,-6.29 6.29,6.29 0 0 0 -6.29,-6.29 z M 6.326,1.009 A 5.407,5.407 0 0 1 11.733,6.416 5.407,5.407 0 0 1 6.326,11.823 5.407,5.407 0 0 1 0.92,6.416 5.407,5.407 0 0 1 6.326,1.01 Z M 2.785,3.06 H 2.784 A 0.643,0.643 0 0 0 2.139,3.705 v 1.074 c 0,0.017 0.004,0.033 0.006,0.05 V 7.97 H 2.14 v 1.006 c 0,0.357 0.287,0.644 0.644,0.644 H 9.965 A 0.643,0.643 0 0 0 10.609,8.976 V 8.114 H 10.61 V 3.778 H 5.946 L 5.226,3.059 H 2.785 Z M 3.086,4.502 3.084,4.503 h 7.513 L 10.6,4.993 H 3.38 V 5.945 C 3.38,6.127 3.26,6.273 3.11,6.273 2.96,6.273 2.84,6.127 2.84,5.945 V 4.829 C 2.84,4.813 2.846,4.799 2.848,4.783 2.846,4.77 2.84,4.759 2.84,4.746 c 0,-0.125 0.095,-0.224 0.216,-0.239 0.01,0 0.02,-0.006 0.03,-0.006 z m 3.678,1.246 c 0.503,0 0.907,0.414 0.907,0.922 v 0.44 h 0.227 c 0.126,0 0.227,0.1 0.227,0.226 V 8.697 A 0.226,0.226 0 0 1 7.898,8.923 H 5.631 A 0.226,0.226 0 0 1 5.404,8.697 V 7.335 c 0,-0.126 0.101,-0.226 0.227,-0.226 h 0.226 v -0.44 c 0,-0.508 0.405,-0.922 0.907,-0.922 z m 0,0.454 A 0.453,0.453 0 0 0 6.311,6.656 V 7.11 H 7.218 V 6.656 A 0.453,0.453 0 0 0 6.764,6.202 Z"
     id="path2"
     inkscape:connector-curvature="0"
     style="fill:#2c89a0" />
</svg>
